Adwaita++-Dark/status/symbolic/mpi-symbolic.svg

<svg height="16" width="16" xmlns="http://www.w3.org/2000/svg">
  <path d="m5 1v1 7.19c-.32-.12-.64-.19-1-.19-1.66 0-3 1.34-3 3s1.34 3 3 3 3-1.34 3-3v-7h6v4.19c-.32-.12-.64-.19-1-.19-1.66 0-3 1.34-3 3s1.34 3 3 3 3-1.34 3-3v-11s0 0-1 0z" fill="#e6ddff"/>
</svg>

<svg xmlns="http://www.w3.org/2000/svg" width="16" height="16" version="1.1">
 <path style="fill:#E6DDFF" d="M 5,1 C 5,1 5,1 5,2 V 9.19 C 4.68,9.07 4.36,9 4,9 2.34,9 1,10.34 1,12 1,13.66 2.34,15 4,15 5.66,15 7,13.66 7,12 V 5 H 13 V 9.19 C 12.68,9.07 12.36,9 12,9 10.34,9 9,10.34 9,12 9,13.66 10.34,15 12,15 13.66,15 15,13.66 15,12 V 1 C 15,1 15,1 14,1 Z"/>
</svg>
